**kern	**kern
*staff1	*staff1
*head1[head1]	*head1[head1]
*solo1[solo1]	*solo1[solo1]
*solo2[solo2]	*solo2[solo2]
*solo3[solo3]	*solo3[solo3]
*clefG2	*clefG2
*k[]	*k[]
*B-:	*B-:
*M4/4	*M4/4
*>head1	*>head1
8B-/L	.
8A/J	.
=1	=1
{8B-/L	1A-:maj
8f/	.
8e/	.
8f/J	.
8d/	.
4B-/	.
[8d/	.
=2||	=2||
8d/]	1A-:maj
4c/	.
8r	.
4r	.
8B-/L	.
8A/J	.
=3	=3
8B-/L	1A-:maj
8F/	.
8E/	.
8F/J	.
8d/	.
4f/	.
[8f#/	.
=4	=4
8f#/]	1A-:maj
4c/	.
8r	.
4r	.
8B-/L	.
8A/J	.
=5	=5
8B-/	1A-:maj
8r	.
8r	.
8F/	.
4B-/	.
4B-/	.
=6	=6
8r	1A-:maj
4B-/	.
8G/	.
8d/L	.
8c/	.
8F#/	.
8G/J	.
=7	=7
8d/L	1A-:maj
8B-/	.
8c/	.
8B-/J	.
8d/L	.
8E-/J}	.
8r	.
*>solo1	*>solo1
{16dd\LL	.
16cc\JJ	.
=8	=8
8b-/L	1A-:maj
8g/	.
8e-/	.
8c/J	.
8d-/L	.
8B-/	.
8G/	.
8A/J	.
=9	=9
8c/L	1B-:maj
8B-/	.
8A/J	.
24c/LL	.
24e-/	.
24g-/JJ	.
8f/L	.
8e-/J	.
12d/L	.
12f/	.
12a/J	.
=10||	=10||
8cc\L	1B-:maj
8b-\	.
8a\	.
8b-\J	.
8cc/L	.
[8f/J	.
4f/]}	.
=11	=11
4r	1E-:maj
8r	.
{4cc\	.
8dd\	.
12ee-\L	.
12dd\	.
12dd-\J	.
=12	=12
8cc\L	1E-:maj
8b\	.
8b-\	.
8g-\J	.
8e-/L	.
8c/	.
8a-/	.
8g-/J	.
=13	=13
8f/L	1B-:maj
8e-/	.
8d/	.
8c/J	.
8A/L	.
8B-/	.
8c/	.
8A/J	.
=14	=14
8B-/L	1B-:maj
8c/	.
8d/	.
8e-/J	.
8f/L	.
8g/	.
8a/	.
8b-/J	.
=15	=15
8ee/L	1D:min
8f/J}	.
4r	.
4r	.
8r	.
{24ee\LL	.
24dd\	.
24cc\JJ	.
=16	=16
8b/L	1G:dom
8c#/	.
8d/	.
8e/J	.
8f/L	.
8g/	.
8a-/	.
8g/J	.
=17	=17
8f/L	1C:min
8e-/	.
8d/	.
8B/J	.
8c/L	.
8B/	.
8c/	.
8d/J	.
=18||	=18||
8e-/L	1F:dom
8f/	.
8f#/	.
8g/J	.
8dd\L	.
8dd-\	.
8cc\	.
8b\J	.
=19	=19
8b-/L	1B-:maj
8g-/	.
8e-/	.
8c/J	.
8a-/L	.
8g-/	.
8B/	.
8A/J	.
=20	=20
8B-/L	1B-:maj
8e-/	.
8c/	.
8c#/J	.
8d/L	.
8cn/	.
8Bn/	.
8d/J	.
=21	=21
8f/L	1C:dom
8a-/	.
8g/	.
8f/J	.
12e/L	.
12g/	.
12b-/J	.
8dd/L	.
8g/J	.
=22	=22
8a/L	1C:dom
8cc/	.
8b-/	.
8a/J	.
8g/L	.
8f/	.
8e/	.
8c/J	.
=23	=23
8c#/L	1C:min
8d/	.
8B-/	.
8G/J	.
8cn/L	.
8A/J	.
16B-/LL	.
16d/	.
16f/	.
16a/JJ	.
=24	=24
8dd\L	1F:dom
8cc\	.
8dd\	.
8cc\J}	.
4r	.
*>solo2	*>solo2
{4f/	.
=25	=25
4dd\	1B-:maj
2f/}	.
4r	.
=26||	=26||
2r	1B-:maj
4r	.
{8gg-\L	.
16ff\L	.
16ee\JJ	.
=27	=27
4ee-\	1E-:maj
8ee-\L	.
16dd\L	.
16dd-\JJ	.
4cc\	.
8r	.
8b\	.
=28	=28
8b-/L	1E-:maj
8g-/	.
8e-/	.
8c/J	.
8a-/L	.
8g-/	.
8B/	.
8A/J	.
=29	=29
8B-/L	1B-:maj
8e-/	.
8c/	.
8c#/J	.
8d/L	.
8cn/	.
8G/	.
8A/J	.
=30	=30
8c/L	1B-:maj
8B-/	.
8A/	.
8B-/J	.
8d/L	.
8f/	.
8g/	.
8a/J	.
=31	=31
8b-/L	1D:min
8a/J}	.
4r	.
2r	.
=32	=32
4r	1G:dom
{8ee\L	.
16dd\L	.
16cc\JJ	.
8b/L	.
8c#/	.
8d/	.
8e/J	.
=33	=33
8f/L	1C:min
8g/	.
8a-/	.
8g/J	.
8f/L	.
8e-/	.
8d/	.
8B/J	.
=34	=34
8c/L	1G:dom
8B/	.
8c/	.
8d/J	.
8e-/L	.
8f/J	.
12g-/L	.
12a-/	.
12g-/J	.
=35	=35
8f/L	1B-:maj
8e-/J	.
12d/L	.
12f/	.
12a/J	.
8cc/L	.
8b-/	.
8a/	.
8g/J	.
=36	=36
8f/L	2B-:maj
8e-/	.
8d/	.
8c/J	.
8B/L	2G:dom
8a-/	.
8f/	.
8f#/J	.
=37	=37
8g/L	1C:dom
8f/J	.
12e/L	.
12g/	.
12b-/J	.
8dd/L	.
8g/	.
8a/	.
8cc/J	.
=38	=38
8b-/L	1F:dom
8a/	.
8g/J}	.
8r	.
2r	.
=39	=39
8r	1B-:maj
{8c#/	.
12d/L	.
12f/	.
12a/J	.
8cc/L	.
8a/J	.
12b-\L	.
12cc\	.
12b-\J	.
=40	=40
8a/L	2C:min
8g/	.
8e-/	.
8c/J	.
8f/L	2F:dom
8e-/	.
8d/	.
8c/J	.
=41	=41
*>solo3	*>solo3
4b-\	1B-:maj
8f/L	.
8b-/J	.
8dd\L	.
8ee-\	.
8dd\	.
8cc\J	.
=42||	=42||
8b-/L	1B-:maj
8g/	.
8e-/	.
8c/J	.
8d/L	.
8B-/	.
8G/	.
8A/J	.
=43	=43
8c/L	1D:min
8B-/	.
8A/	.
8B-/J	.
8e-/L	.
8g-/	.
8e-/	.
8c/J	.
=44	=44
2.a-/	1G:dom
8g-/L	.
8e/J	.
=45	=45
8f\L	1B-:maj
8ee-\	.
8cc\	.
8cc#\J	.
8dd/L	.
[8a/J	.
4a/]}	.
=46	=46
1r	1B-:maj
=47	=47
4r	1D:min
{12ee\L	.
12ff\	.
12ff#\J	.
8gg\L	.
8gg-\	.
8ff#\	.
8ee\J	.
=48	=48
8dd\L	1G:dom
16dd-\L	.
16cc\JJ	.
4b\	.
8r	.
8c#/L	.
8d/	.
8e/J	.
=49	=49
8f/L	1C:min
8g/	.
8a-/	.
8g/J	.
8f/L	.
8e-/	.
8d/	.
8B/J	.
=50	=50
8c/L	1E-:min
8B/	.
8c/	.
8d/J	.
8e-/L	.
8f/J	.
12g-/L	.
12a-/	.
12g-/J	.
=51	=51
8f/L	1B-:maj
8e-/J	.
12d/L	.
12f/	.
12a/J	.
8cc/L	.
8b-/	.
8a/	.
8g/J	.
=52	=52
8f/L	1B-:maj
8e-/	.
8d/	.
8c/J	.
8B/L	.
8a-/	.
8f/	.
8f#/J	.
=53	=53
8g/L	1C:dom
8f/J	.
12e/L	.
12g/	.
12b-/J	.
8dd/L	.
8g/	.
8a/	.
8cc/J	.
=54	=54
8b-/L	1C:dom
8d/	.
8d#/	.
8e/J	.
8a/L	.
8g/	.
8e/	.
8c/J	.
=55	=55
8f/L	1C:min
8c/	.
8d/	.
[8e-/J	.
4e-/]}	.
4r	.
=56	=56
1r	1F:dom
=57	=57
8r	1B-:maj
{8f#/	.
12g\L	.
12b-\	.
12dd\J	.
8ff\	.
8r	.
8ff\L	.
[8ee-\J	.
=58||	=58||
8ee-\L]	1B-:maj
8cc\	.
8dd\	.
[8a\J	.
4a/]	.
8cc/L	.
8a/J	.
=59	=59
8b-/L	1E-:min
8g-/J}	.
4r	.
8r	.
{16dd-\LL	.
16cc\J	.
8b-\	.
8g-\J	.
=60	=60
8e-/L	1E-:min
8g-/	.
8b-/	.
8dd-/J	.
8cc/L	.
8b-/	.
8a/	.
8gn/J	.
=61	=61
8f#/L	1B-:maj
8g/	.
8b-/	.
8g/J	.
8e-/L	.
8c/	.
8fn/	.
8e-/J	.
=62	=62
8d/L	1B-:maj
8B-/	.
8G/	.
8A/J	.
8c/L	.
8B-/	.
8A/	.
8B-/J	.
=63	=63
8d/L	1D:min
[8g/J	.
4g/]}	.
2r	.
=64	=64
4r	1G:dom
{8ee-\L	.
16dd\L	.
16cc\JJ	.
8b/L	.
8d/	.
8f/	.
8a-/J	.
=65	=65
8g/L	1C:min
8f/J	.
12e-/L	.
12g/	.
12b-/J	.
8dd\L	.
8dd-\	.
8cc\	.
8bn\J	.
=66||	=66||
8b-/L	1E-:min
8g/	.
8e-/	.
8c/J	.
8a-/L	.
8g-/J}	.
4r	.
=67	=67
8r	1B-:maj
{8c#/	.
12d/L	.
12f/	.
12a/J	.
8cc/L	.
8b-/	.
8a/	.
8g/J	.
=68	=68
8f/L	1G:dom
8e-/	.
8d/	.
8c/J	.
8B/L	.
8a-/	.
8f/	.
8f#/J	.
=69	=69
8g/L	1C:dom
8f/J	.
12e/L	.
12g/	.
12b-/J	.
8dd/L	.
8g/	.
8a/	.
8cc/J	.
=70	=70
8b-/L	2C:min
8g/	.
8e-/	.
8c/J	.
4a/	2F:dom
4r	.
=71	=71
8r	1B-:maj
8c#/	.
12d/L	.
12f/	.
12a/J	.
8cc/L	.
8a/J	.
12b-\L	.
12cc\	.
12b-\J	.
=72	=72
8a/L	2C:min
8g/	.
8e-/	.
8c/J	.
8f/L	2F:dom
8e-/	.
8d/	.
8c/J	.
=73	=73
8A/L	1B-:maj
8G/	.
8A/	.
[8G/J	.
4G/]}	.
4r	.
==	==
*-	*-
